X: 32029
T: Peggy Lettermore
R: polka
M: 2/4
K: Dmajor
FA FD|F/G/A A>G|F/G/A GF|E2 ED/E/|
F/G/A FD|FA d>B|AG FE|D2-:|
d2 A>G|FA AB/c/|dA GF|E2- EB/c/|
d/e/d/B/ AA/G/|F/G/A A>B|AG FE|D2-:|

